X:14159
%2806
T:Centennial Jig
C:Andy De Jarlis
M:6/8
L:1/8
K:Cmaj
e3 c2 A|G3 G2 E|CEG c2 d|e2 c eag|!
f3 d2 c|B2 A GBd|a2 g gag|g3 -g^fg|!
e3 c2 A|G3 G2 E|CEG c2
